X:1
T:Kongesangen
T:Gud sign vår konge god
T:Gustav Jensen
%%score { ( 1 2 ) | ( 3 4 ) }
L:1/8
Q:1/4=80
M:3/4
K:G
V:1 treble nm="Vokal"
V:2 treble 
V:3 bass 
V:4 bass 
V:1
 G2 G2 A2 | F3 G A2 | B2 B2 c2 | B3 A G2 | A2 G2 F2 | G4 z2 |: d2 d2 d2 | d3 c B2 | c2 c2 c2 | %9
 c3 B A2 | B2 (cB) (AG) | B3 c d2 | (3(edc) B2 A2 | G4 z2 :| %14
V:2
 D2 D2 E2 | D3 D D2 | D2 G2 A2 | G3 F E2 | E2 D2 C2 | B,4 x2 |: G2 G2 G2 | G3 G G2 | F2 F2 F2 | %9
w: Gud sign vår|kon- ge god,|Sign ham med|kraft og mot,|Sign hjem og|slott.|Lys for ham|ved din ånd,|Knytt med din|
w: Høyt sver- ger|Nor- ges mann,|Hver i sitt|kall, sin stand,|tro- skap sin|drott.|Tro- fast i|liv og død,|Tap- per i|
 F3 G F2 | G2 G2 (FG) | G3 A B2 | G2 G2 F2 | G4 x2 :| %14
w: ster- ke hånd|hel- li- ge _|tro- skaps- bånd|om folk og|drott.|
w: krig og nød;|all- tid vårt _|Nor- ge lød|Gud og sin|drott.|
V:3
 B,2 G,2 E,2 | A,3 B, C2 | B,2 B,2 E2 | D3 C B,2 | C2 B,2 A,2 | G,4 z2 |: B,2 B,2 B,2 | %7
 B,3 A, G,2 | D2 D2 D2 | D3 D D2 | (D^D) (E=D) (CB,) | D3 D D2 | (3(CDE) D2 C2 | B,4 z2 :| %14
V:4
 G,,2 B,,2 C,2 | D,3 D, D,2 | G,2 E,2 C,2 | D,3 ^D, E,2 | C,2 D,2 D,2 | G,,4 x2 |: G,,2 B,,2 D,2 | %7
 G,3 G,, G,,2 | D,2 F,2 A,2 | D3 D, D,2 | G,,2 G,,2 G,,2 | G,,3 G,, G,,2 | C,2 D,2 D,2 | G,4 x2 :| %14

